Newaita/actions/22/view-restore.svg

<svg height="22" viewBox="0 0 22 22" width="22" xmlns="http://www.w3.org/2000/svg"><g fill="#424242"><path d="m5.457031 7.449219c1.007813 0 1.820313-.8125 1.820313-1.820313v-3.636718h-1.820313v2.726562c0 .503906-.40625.910156-.910156.910156h-2.726563v1.820313zm0 0"/><path d="m20.011719 7.449219v-1.820313h-2.730469c-.503906 0-.910156-.40625-.910156-.910156v-2.726562h-1.816406v3.636718c0 1.007813.808593 1.820313 1.816406 1.820313zm0 0"/><path d="m7.277344 20.183594v-3.640625c0-1.007813-.8125-1.816407-1.820313-1.816407h-3.636719v1.816407h2.726563c.503906 0 .910156.40625.910156.910156v2.730469zm0 0"/><path d="m16.371094 20.183594v-2.730469c0-.503906.40625-.910156.910156-.910156h2.730469v-1.816407h-3.640625c-1.007813 0-1.816406.808594-1.816406 1.816407v3.640625zm0 0"/></g></svg>

<svg xmlns="http://www.w3.org/2000/svg" xmlns:xlink="http://www.w3.org/1999/xlink" width="22px" height="22px" viewBox="0 0 22 22" version="1.1">
<g id="surface1">
     <defs>
  <style id="current-color-scheme" type="text/css">
   .ColorScheme-Text { color:#424242; } .ColorScheme-Highlight { color:#eeeeee; }
  </style>
 </defs>
<path style="fill:currentColor" class="ColorScheme-Text" d="M 5.457031 7.449219 C 6.464844 7.449219 7.277344 6.636719 7.277344 5.628906 L 7.277344 1.992188 L 5.457031 1.992188 L 5.457031 4.71875 C 5.457031 5.222656 5.050781 5.628906 4.546875 5.628906 L 1.820312 5.628906 L 1.820312 7.449219 Z M 5.457031 7.449219 "/>
     <defs>
  <style id="current-color-scheme" type="text/css">
   .ColorScheme-Text { color:#424242; } .ColorScheme-Highlight { color:#eeeeee; }
  </style>
 </defs>
<path style="fill:currentColor" class="ColorScheme-Text" d="M 20.011719 7.449219 L 20.011719 5.628906 L 17.28125 5.628906 C 16.777344 5.628906 16.371094 5.222656 16.371094 4.71875 L 16.371094 1.992188 L 14.554688 1.992188 L 14.554688 5.628906 C 14.554688 6.636719 15.363281 7.449219 16.371094 7.449219 Z M 20.011719 7.449219 "/>
     <defs>
  <style id="current-color-scheme" type="text/css">
   .ColorScheme-Text { color:#424242; } .ColorScheme-Highlight { color:#eeeeee; }
  </style>
 </defs>
<path style="fill:currentColor" class="ColorScheme-Text" d="M 7.277344 20.183594 L 7.277344 16.542969 C 7.277344 15.535156 6.464844 14.726562 5.457031 14.726562 L 1.820312 14.726562 L 1.820312 16.542969 L 4.546875 16.542969 C 5.050781 16.542969 5.457031 16.949219 5.457031 17.453125 L 5.457031 20.183594 Z M 7.277344 20.183594 "/>
     <defs>
  <style id="current-color-scheme" type="text/css">
   .ColorScheme-Text { color:#424242; } .ColorScheme-Highlight { color:#eeeeee; }
  </style>
 </defs>
<path style="fill:currentColor" class="ColorScheme-Text" d="M 16.371094 20.183594 L 16.371094 17.453125 C 16.371094 16.949219 16.777344 16.542969 17.28125 16.542969 L 20.011719 16.542969 L 20.011719 14.726562 L 16.371094 14.726562 C 15.363281 14.726562 14.554688 15.535156 14.554688 16.542969 L 14.554688 20.183594 Z M 16.371094 20.183594 "/>
</g>
</svg>
